components/Common/Svg/svgs/titledGradle.svg

<svg
  width="78"
  height="106"
  viewBox="0 0 78 106"
  fill="none"
  xmlns="http://www.w3.org/2000/svg"
>
  <path
    d="M20.0677 87.09C19.7197 86.358 19.2157 85.794 18.5557 85.398C17.8957 84.99 17.1277 84.786 16.2517 84.786C15.3757 84.786 14.5837 84.99 13.8757 85.398C13.1797 85.794 12.6277 86.37 12.2197 87.126C11.8237 87.87 11.6257 88.734 11.6257 89.718C11.6257 90.702 11.8237 91.566 12.2197 92.31C12.6277 93.054 13.1797 93.63 13.8757 94.038C14.5837 94.434 15.3757 94.632 16.2517 94.632C17.4757 94.632 18.4837 94.266 19.2757 93.534C20.0677 92.802 20.5297 91.812 20.6617 90.564H15.6577V89.232H22.4077V90.492C22.3117 91.524 21.9877 92.472 21.4357 93.336C20.8837 94.188 20.1577 94.866 19.2577 95.37C18.3577 95.862 17.3557 96.108 16.2517 96.108C15.0877 96.108 14.0257 95.838 13.0657 95.298C12.1057 94.746 11.3437 93.984 10.7797 93.012C10.2277 92.04 9.95173 90.942 9.95173 89.718C9.95173 88.494 10.2277 87.396 10.7797 86.424C11.3437 85.44 12.1057 84.678 13.0657 84.138C14.0257 83.586 15.0877 83.31 16.2517 83.31C17.5837 83.31 18.7597 83.64 19.7797 84.3C20.8117 84.96 21.5617 85.89 22.0297 87.09H20.0677ZM26.2115 87.738C26.4995 87.174 26.9075 86.736 27.4355 86.424C27.9755 86.112 28.6295 85.956 29.3975 85.956V87.648H28.9655C27.1295 87.648 26.2115 88.644 26.2115 90.636V96H24.5735V86.136H26.2115V87.738ZM30.6763 91.032C30.6763 90.024 30.8803 89.142 31.2883 88.386C31.6963 87.618 32.2543 87.024 32.9623 86.604C33.6823 86.184 34.4803 85.974 35.3563 85.974C36.2203 85.974 36.9703 86.16 37.6063 86.532C38.2423 86.904 38.7163 87.372 39.0283 87.936V86.136H40.6843V96H39.0283V94.164C38.7043 94.74 38.2183 95.22 37.5703 95.604C36.9343 95.976 36.1903 96.162 35.3383 96.162C34.4623 96.162 33.6703 95.946 32.9623 95.514C32.2543 95.082 31.6963 94.476 31.2883 93.696C30.8803 92.916 30.6763 92.028 30.6763 91.032ZM39.0283 91.05C39.0283 90.306 38.8783 89.658 38.5783 89.106C38.2783 88.554 37.8703 88.134 37.3543 87.846C36.8503 87.546 36.2923 87.396 35.6803 87.396C35.0683 87.396 34.5103 87.54 34.0063 87.828C33.5023 88.116 33.1003 88.536 32.8003 89.088C32.5003 89.64 32.3503 90.288 32.3503 91.032C32.3503 91.788 32.5003 92.448 32.8003 93.012C33.1003 93.564 33.5023 93.99 34.0063 94.29C34.5103 94.578 35.0683 94.722 35.6803 94.722C36.2923 94.722 36.8503 94.578 37.3543 94.29C37.8703 93.99 38.2783 93.564 38.5783 93.012C38.8783 92.448 39.0283 91.794 39.0283 91.05ZM42.8404 91.032C42.8404 90.024 43.0444 89.142 43.4524 88.386C43.8604 87.618 44.4184 87.024 45.1264 86.604C45.8464 86.184 46.6504 85.974 47.5384 85.974C48.3064 85.974 49.0204 86.154 49.6804 86.514C50.3404 86.862 50.8444 87.324 51.1924 87.9V82.68H52.8484V96H51.1924V94.146C50.8684 94.734 50.3884 95.22 49.7524 95.604C49.1164 95.976 48.3724 96.162 47.5204 96.162C46.6444 96.162 45.8464 95.946 45.1264 95.514C44.4184 95.082 43.8604 94.476 43.4524 93.696C43.0444 92.916 42.8404 92.028 42.8404 91.032ZM51.1924 91.05C51.1924 90.306 51.0424 89.658 50.7424 89.106C50.4424 88.554 50.0344 88.134 49.5184 87.846C49.0144 87.546 48.4564 87.396 47.8444 87.396C47.2324 87.396 46.6744 87.54 46.1704 87.828C45.6664 88.116 45.2644 88.536 44.9644 89.088C44.6644 89.64 44.5144 90.288 44.5144 91.032C44.5144 91.788 44.6644 92.448 44.9644 93.012C45.2644 93.564 45.6664 93.99 46.1704 94.29C46.6744 94.578 47.2324 94.722 47.8444 94.722C48.4564 94.722 49.0144 94.578 49.5184 94.29C50.0344 93.99 50.4424 93.564 50.7424 93.012C51.0424 92.448 51.1924 91.794 51.1924 91.05ZM57.2545 82.68V96H55.6165V82.68H57.2545ZM69.0462 90.69C69.0462 91.002 69.0282 91.332 68.9922 91.68H61.1082C61.1682 92.652 61.4982 93.414 62.0982 93.966C62.7102 94.506 63.4482 94.776 64.3122 94.776C65.0202 94.776 65.6082 94.614 66.0762 94.29C66.5562 93.954 66.8922 93.51 67.0842 92.958H68.8482C68.5842 93.906 68.0562 94.68 67.2642 95.28C66.4722 95.868 65.4882 96.162 64.3122 96.162C63.3762 96.162 62.5362 95.952 61.7922 95.532C61.0602 95.112 60.4842 94.518 60.0642 93.75C59.6442 92.97 59.4342 92.07 59.4342 91.05C59.4342 90.03 59.6382 89.136 60.0462 88.368C60.4542 87.6 61.0242 87.012 61.7562 86.604C62.5002 86.184 63.3522 85.974 64.3122 85.974C65.2482 85.974 66.0762 86.178 66.7962 86.586C67.5162 86.994 68.0682 87.558 68.4522 88.278C68.8482 88.986 69.0462 89.79 69.0462 90.69ZM67.3542 90.348C67.3542 89.724 67.2162 89.19 66.9402 88.746C66.6642 88.29 66.2862 87.948 65.8062 87.72C65.3382 87.48 64.8162 87.36 64.2402 87.36C63.4122 87.36 62.7042 87.624 62.1162 88.152C61.5402 88.68 61.2102 89.412 61.1262 90.348H67.3542Z"
    fill="#A0A0A0"
  ></path>
  <path
    d="M73.7608 4.60639C69.0484 -0.0849556 61.4474 -0.215774 56.5748 4.31061C56.341 4.53012 56.2048 4.83337 56.1965 5.15314C56.1982 5.47156 56.3242 5.77686 56.5478 6.00463L58.0881 7.5911C58.5034 8.00264 59.1593 8.04844 59.6283 7.69866C60.8501 6.78113 62.3401 6.28688 63.8708 6.29145C66.7427 6.27895 69.3377 7.99417 70.4396 10.6333C71.5416 13.2724 70.9321 16.3125 68.8969 18.3289C59.0789 28.0987 45.9732 0.725363 16.231 14.8064C15.2081 15.2822 14.4316 16.1619 14.0895 17.2327C13.7473 18.3035 13.8706 19.4679 14.4295 20.4442L19.5277 29.2191C20.6345 31.1188 23.0675 31.7849 24.9951 30.7159L25.1212 30.6442L25.0221 30.7159L27.283 29.4521C29.8026 27.8953 32.1833 26.126 34.3988 24.1639C34.8678 23.7636 35.5601 23.7636 36.0291 24.1639C36.306 24.38 36.4685 24.7101 36.4705 25.0602C36.4769 25.4005 36.3358 25.7271 36.0831 25.9565C33.7497 28.0177 31.239 29.8712 28.58 31.4957H28.508L26.2471 32.7505C25.2915 33.2895 24.211 33.5706 23.1126 33.5662C20.8039 33.5664 18.6682 32.3485 17.501 30.3664L12.6821 22.0755C3.42256 28.5827 -2.19802 41.1221 0.819436 57.0316C0.930023 57.5795 1.4108 57.9757 1.97237 57.9817H7.46685C8.05778 57.9817 8.55606 57.5434 8.62879 56.9599C9.13536 52.9577 12.5556 49.9561 16.6093 49.9561C20.663 49.9561 24.0832 52.9577 24.5898 56.9599C24.6667 57.5448 25.1679 57.9817 25.7607 57.9817H31.1111C31.702 57.9817 32.2003 57.5434 32.273 56.9599C32.7959 52.9686 36.2131 49.9826 40.258 49.9826C44.303 49.9826 47.7202 52.9686 48.243 56.9599C48.3158 57.5434 48.8141 57.9817 49.405 57.9817H54.6923C55.332 57.9817 55.8534 57.4709 55.8632 56.8344C55.9893 49.4219 57.998 40.907 63.7267 36.6405C83.5698 21.8693 78.3546 9.20446 73.7608 4.60639ZM53.5213 26.9514L49.7382 25.0602C49.7341 23.943 50.5157 22.9751 51.613 22.7388C52.7103 22.5024 53.8243 23.0619 54.2848 24.0807C54.7454 25.0996 54.4271 26.3002 53.5213 26.9604V26.9514Z"
    fill="#A3A3A3"
  ></path>
</svg>

<svg width="78" height="106" viewBox="0 0 78 106" fill="none" xmlns="http://www.w3.org/2000/svg"><path d="M20.068 87.09a3.844 3.844 0 0 0-1.512-1.692c-.66-.408-1.428-.612-2.304-.612-.876 0-1.668.204-2.376.612-.696.396-1.248.972-1.656 1.728-.396.744-.594 1.608-.594 2.592s.198 1.848.594 2.592c.408.744.96 1.32 1.656 1.728.708.396 1.5.594 2.376.594 1.224 0 2.232-.366 3.024-1.098.792-.732 1.254-1.722 1.386-2.97h-5.004v-1.332h6.75v1.26a6.289 6.289 0 0 1-.972 2.844 6.11 6.11 0 0 1-2.178 2.034c-.9.492-1.902.738-3.006.738-1.164 0-2.226-.27-3.186-.81a6.146 6.146 0 0 1-2.286-2.286c-.552-.972-.828-2.07-.828-3.294 0-1.224.276-2.322.828-3.294a5.976 5.976 0 0 1 2.286-2.286c.96-.552 2.022-.828 3.186-.828 1.332 0 2.508.33 3.528.99 1.032.66 1.782 1.59 2.25 2.79h-1.962Zm6.143.648a3.16 3.16 0 0 1 1.225-1.314c.54-.312 1.194-.468 1.962-.468v1.692h-.433c-1.835 0-2.753.996-2.753 2.988V96h-1.639v-9.864h1.639v1.602Zm4.465 3.294c0-1.008.204-1.89.612-2.646a4.446 4.446 0 0 1 1.674-1.782c.72-.42 1.518-.63 2.394-.63.864 0 1.614.186 2.25.558.636.372 1.11.84 1.422 1.404v-1.8h1.656V96h-1.656v-1.836c-.324.576-.81 1.056-1.458 1.44-.636.372-1.38.558-2.232.558-.876 0-1.668-.216-2.376-.648-.708-.432-1.266-1.038-1.674-1.818-.408-.78-.612-1.668-.612-2.664Zm8.352.018c0-.744-.15-1.392-.45-1.944a3.098 3.098 0 0 0-1.224-1.26 3.211 3.211 0 0 0-1.674-.45c-.612 0-1.17.144-1.674.432a3.134 3.134 0 0 0-1.206 1.26c-.3.552-.45 1.2-.45 1.944 0 .756.15 1.416.45 1.98.3.552.702.978 1.206 1.278a3.314 3.314 0 0 0 1.674.432c.612 0 1.17-.144 1.674-.432.516-.3.924-.726 1.224-1.278.3-.564.45-1.218.45-1.962Zm3.812-.018c0-1.008.204-1.89.612-2.646a4.446 4.446 0 0 1 1.674-1.782c.72-.42 1.524-.63 2.412-.63.768 0 1.482.18 2.142.54.66.348 1.164.81 1.512 1.386v-5.22h1.656V96h-1.656v-1.854c-.324.588-.804 1.074-1.44 1.458-.636.372-1.38.558-2.232.558a4.564 4.564 0 0 1-2.394-.648c-.708-.432-1.266-1.038-1.674-1.818-.408-.78-.612-1.668-.612-2.664Zm8.352.018c0-.744-.15-1.392-.45-1.944a3.098 3.098 0 0 0-1.224-1.26 3.211 3.211 0 0 0-1.674-.45c-.612 0-1.17.144-1.674.432a3.134 3.134 0 0 0-1.206 1.26c-.3.552-.45 1.2-.45 1.944 0 .756.15 1.416.45 1.98.3.552.702.978 1.206 1.278a3.314 3.314 0 0 0 1.674.432c.612 0 1.17-.144 1.674-.432.516-.3.924-.726 1.224-1.278.3-.564.45-1.218.45-1.962Zm6.063-8.37V96h-1.639V82.68h1.639Zm11.791 8.01c0 .312-.018.642-.054.99h-7.884c.06.972.39 1.734.99 2.286.612.54 1.35.81 2.214.81.708 0 1.296-.162 1.764-.486.48-.336.816-.78 1.008-1.332h1.764a4.284 4.284 0 0 1-1.584 2.322c-.792.588-1.776.882-2.952.882-.936 0-1.776-.21-2.52-.63a4.492 4.492 0 0 1-1.728-1.782c-.42-.78-.63-1.68-.63-2.7 0-1.02.204-1.914.612-2.682a4.254 4.254 0 0 1 1.71-1.764c.744-.42 1.596-.63 2.556-.63.936 0 1.764.204 2.484.612.72.408 1.272.972 1.656 1.692.396.708.594 1.512.594 2.412Zm-1.692-.342c0-.624-.138-1.158-.414-1.602a2.605 2.605 0 0 0-1.134-1.026c-.468-.24-.99-.36-1.566-.36-.828 0-1.536.264-2.124.792-.576.528-.906 1.26-.99 2.196h6.228Z" fill="#A0A0A0"/><path d="M73.76 4.606C69.049-.085 61.448-.216 56.576 4.311c-.234.22-.37.522-.379.842.002.319.128.624.352.852l1.54 1.586a1.184 1.184 0 0 0 1.54.108 7.03 7.03 0 0 1 4.243-1.408 7.08 7.08 0 0 1 6.569 4.342 7.02 7.02 0 0 1-1.543 7.696C59.079 28.099 45.973.725 16.23 14.806a4.03 4.03 0 0 0-2.142 2.427 4.007 4.007 0 0 0 .34 3.211l5.099 8.775a4.055 4.055 0 0 0 5.467 1.497l.126-.072-.099.072 2.261-1.264a51.802 51.802 0 0 0 7.116-5.288c.469-.4 1.161-.4 1.63 0 .277.216.44.546.441.896a1.18 1.18 0 0 1-.387.896 53.328 53.328 0 0 1-7.503 5.54h-.072l-2.26 1.255a6.33 6.33 0 0 1-3.135.815 6.51 6.51 0 0 1-5.612-3.2l-4.819-8.29C3.422 28.583-2.198 41.121.82 57.032c.111.548.592.944 1.153.95h5.495c.59 0 1.09-.439 1.162-1.022.506-4.002 3.927-7.004 7.98-7.004 4.054 0 7.474 3.002 7.98 7.004a1.178 1.178 0 0 0 1.172 1.022h5.35c.591 0 1.09-.439 1.162-1.022.523-3.991 3.94-6.977 7.985-6.977s7.462 2.986 7.985 6.977a1.17 1.17 0 0 0 1.162 1.022h5.287c.64 0 1.161-.511 1.171-1.148.126-7.412 2.135-15.927 7.864-20.194C83.57 21.87 78.355 9.205 73.76 4.607ZM53.522 26.951l-3.783-1.89a2.381 2.381 0 0 1 4.547-.98 2.36 2.36 0 0 1-.764 2.88v-.01Z" fill="#A3A3A3"/></svg>
